X: 71
T:The Poker Party Polka
% Nottingham Music Database
S:via PR
M:2/4
L:1/4
K:Gm
"Gm"d/4^c/4d/4e/4 "D"d/4=c/4B/4A/4|"Gm"G/2B/2 B/4A/4G/2|"D"^F/2A/2 A/4G/4F/2|\
"Gm"G/4^F/4G/4A/4 "D"B/4A/4B/4c/4|
"Gm"d/4^c/4d/4e/4 "D"d/4=c/4B/4A/4|"Gm"G/2B/2 B/4A/4G/2|"D"^F/2A/2 D/2=E/4F/4|\
"Gm"G/2G/2 G::
"Gm"G/4^F/4G/4A/4 B/2G/2|"D"^F/2G/2 A|"D"D/2^F/2 A/2c/2|"Gm"c/4B/4A/4B/4 G|
G/4^F/4G/4A/4 B/2G/2|"Cm"c/2d/2 e|"D"d/4^c/4d/4e/4 d/4=c/4B/4A/4|"Gm"G/2G/2 G\
:|<end>
<start>
